flags/ge-ab.svg

<svg width="512" height="512" viewBox="0 0 512 512" fill="none" xmlns="http://www.w3.org/2000/svg">
<rect width="512" height="512" fill="var(--flag-palette-green, #6da544)"/>
<path fill-rule="evenodd" clip-rule="evenodd" d="M0 73.1426H512V146.285H0V73.1426ZM0 219.419H512V292.562H0V219.419ZM512 365.696H0V438.839H512V365.696Z" fill="var(--flag-palette-white, #eeeeee)"/>
<rect width="256" height="219.429" fill="var(--flag-palette-bright-red, #d80027)"/>
<path d="M111.301 171.715L100.201 149.415V104.915L128.001 82.6148L155.801 104.915V138.315L167.001 127.115V149.415L144.701 171.715H111.301ZM51.401 103.415L54.401 112.415H63.901L56.201 118.115L59.201 127.115L51.401 121.515L43.701 127.115L46.701 118.115L39.001 112.515H48.501L51.401 103.415ZM73.701 81.1148L76.701 90.2148H86.201L78.501 95.8148L81.501 104.815L73.701 99.3148L66.001 104.915L69.001 95.9148L61.201 90.2148H70.701L73.701 81.1148ZM96.001 58.9148L98.901 67.9148H108.401L100.701 73.6148L103.701 82.6148L96.001 77.0148L88.201 82.6148L91.201 73.6148L83.501 67.9148H93.001L96.001 58.9148ZM204.601 103.415L201.601 112.415H192.101L199.801 118.115L196.801 127.115L204.601 121.515L212.301 127.115L209.301 118.115L217.001 112.515H207.501L204.601 103.415ZM182.301 81.1148L179.301 90.2148H169.801L177.501 95.8148L174.501 104.815L182.301 99.3148L190.001 104.915L187.001 95.9148L194.801 90.2148H185.201L182.301 81.1148ZM160.001 58.9148L157.001 67.9148H147.601L155.301 73.6148L152.301 82.6148L160.001 77.0148L167.801 82.6148L164.801 73.6148L172.501 67.9148H163.001L160.001 58.9148ZM128.001 47.7148L125.001 56.8148H115.501L123.301 62.4148L120.301 71.4148L128.101 65.9148L135.801 71.5148L132.801 62.5148L140.601 56.8148H131.001L128.001 47.7148Z" fill="var(--flag-palette-white, #eeeeee)"/>
</svg>

<svg xmlns="http://www.w3.org/2000/svg" width="512" height="512" fill="none"><path fill="var(--flag-palette-green, #6da544)" d="M0 0h512v512H0z"/><path fill="var(--flag-palette-white, #eeeeee)" fill-rule="evenodd" d="M0 73.1h512v73.2H0zm0 146.3h512v73.2H0zm512 146.3H0v73.1h512z" clip-rule="evenodd"/><path fill="var(--flag-palette-bright-red, #d80027)" d="M0 0h256v219.4H0z"/><path fill="var(--flag-palette-white, #eeeeee)" d="m111.3 171.7-11.1-22.3V105L128 82.6l27.8 22.3v33.4l11.2-11.2v22.3l-22.3 22.3zm-59.9-68.3 3 9h9.5l-7.7 5.7 3 9-7.8-5.6-7.7 5.6 3-9-7.7-5.6h9.5zm22.3-22.3 3 9.1h9.5l-7.7 5.6 3 9-7.8-5.5L66 105l3-9-7.8-5.7h9.5zM96 59l2.9 9h9.5l-7.7 5.7 3 9L96 77l-7.8 5.6 3-9-7.7-5.7H93zm108.6 44.5-3 9h-9.5l7.7 5.7-3 9 7.8-5.6 7.7 5.6-3-9 7.7-5.6h-9.5zm-22.3-22.3-3 9.1h-9.5l7.7 5.6-3 9 7.8-5.5 7.7 5.6-3-9 7.8-5.7h-9.6zM160 59l-3 9h-9.4l7.7 5.7-3 9L160 77l7.8 5.6-3-9 7.7-5.7H163zm-32-11.2-3 9.1h-9.5l7.8 5.6-3 9 7.8-5.5 7.7 5.6-3-9 7.8-5.7H131z"/></svg>
